svg/blobs-icons/no-decorations/bell.svg

<svg xmlns="http://www.w3.org/2000/svg" xmlns:xlink="http://www.w3.org/1999/xlink" preserveAspectRatio="xMidYMid" width="149" height="216" viewBox="0 0 149 216"><defs><style>.cls-3{fill:#ff3a2f}.cls-4{fill:#060606;opacity:.35}.cls-5{fill:#fbb713}.cls-6{fill:#ededed}.cls-7{fill:#010100;opacity:.25}.cls-8{fill:#142a3b}</style></defs><g id="group-3svg"><path d="M108.649 181.265c0 18.921-15.339 34.26-34.261 34.26-18.921.0-34.261-15.339-34.261-34.26h68.522z" id="path-1" class="cls-3" fill-rule="evenodd"/><path d="M40.127 181.265C40.127 184.726 39.776 184.486 40.731 187.636l54.654 6.892C95.385 202.737 92.491 206.95 87.678 212.85c12.321-5.191 20.971-17.377 20.971-31.585H40.127z" id="path-2" class="cls-4" fill-rule="evenodd"/><path d="M135.101 147.532C135.005 147 134.966 146.479 134.966 145.937V80.308c0-29.008-26.131-52.838-59.745-56.065H73.555C39.941 27.47 13.81 51.3 13.81 80.308v65.629C13.81 146.479 13.771 147 13.676 147.532 13.159 150.393 10.901 159.861 2.571 168.584c-5.655 5.923-1.329 15.76 6.86 15.76H139.345C147.534 184.344 151.86 174.507 146.205 168.584 137.875 159.861 135.617 150.393 135.101 147.532z" id="path-3" class="cls-5" fill-rule="evenodd"/><path d="M24.684 112.211c-1.985.0-3.592-1.608-3.592-3.592V84.613c0-16.759 9.843-32.299 26.329-41.571C49.153 42.066 51.342 42.684 52.314 44.411 53.287 46.142 52.673 48.331 50.944 49.304 36.75 57.286 28.276 70.485 28.276 84.613v24.006c0 1.98399999999999-1.609 3.592-3.592 3.592z" id="path-4" class="cls-6" fill-rule="evenodd"/><path d="M146.205 168.584C137.876 159.861 135.617 150.393 135.101 147.532 135.005 147 134.966 146.479 134.966 145.937V80.308c0-29.008-26.131-52.838-59.745-56.065H73.555C69.174 24.664 64.929 25.452 60.843 26.537h1.056c31.258 3.001 55.557 25.16 55.557 52.136v61.03C117.456 140.206 117.493 140.69 117.582 141.185 118.061 143.845 120.162 152.651 127.908 160.762 133.167 166.27 129.144 175.416 121.528 175.416H.72C.487 175.416.268 175.382.041 175.366.286 180.011 3.998 184.344 9.431 184.344H139.345C147.534 184.344 151.86 174.507 146.205 168.584z" id="path-5" class="cls-7" fill-rule="evenodd"/><path d="M86.514 12.118c0 6.696-5.429 12.125-12.126 12.125-6.697.0-12.126-5.429-12.126-12.125.0-6.698 5.429-12.126 12.126-12.126C81.085-.008 86.514 5.42 86.514 12.118z" id="path-6" class="cls-8" fill-rule="evenodd"/><path d="M81.141 2.049C82.439 3.979 83.198 6.301 83.198 8.802 83.198 15.499 77.769 20.928 71.072 20.928 68.571 20.928 66.249 20.169 64.319 18.87 66.496 22.11 70.192 24.243 74.388 24.243 81.085 24.243 86.514 18.815 86.514 12.118 86.514 7.922 84.381 4.225 81.141 2.049z" id="path-7" class="cls-4" fill-rule="evenodd"/></g></svg>

<svg xmlns="http://www.w3.org/2000/svg" xmlns:xlink="http://www.w3.org/1999/xlink" preserveAspectRatio="xMidYMid" width="149" height="216" viewBox="0 0 149 216">
  <defs>
    <style>

      .cls-3 {
        fill: #ff3a2f;
      }

      .cls-4 {
        fill: #060606;
        opacity: 0.35;
      }

      .cls-5 {
        fill: #fbb713;
      }

      .cls-6 {
        fill: #ededed;
      }

      .cls-7 {
        fill: #010100;
        opacity: 0.25;
      }

      .cls-8 {
        fill: #142a3b;
      }
    </style>
  </defs>
  <g id="group-3svg">
    <path d="M108.649,181.265 C108.649,200.186 93.310,215.525 74.388,215.525 C55.467,215.525 40.127,200.186 40.127,181.265 C40.127,181.265 108.649,181.265 108.649,181.265 Z" id="path-1" class="cls-3" fill-rule="evenodd"/>
    <path d="M40.127,181.265 C40.127,184.726 39.776,184.486 40.731,187.636 C40.731,187.636 95.385,194.528 95.385,194.528 C95.385,202.737 92.491,206.950 87.678,212.850 C99.999,207.659 108.649,195.473 108.649,181.265 C108.649,181.265 40.127,181.265 40.127,181.265 Z" id="path-2" class="cls-4" fill-rule="evenodd"/>
    <path d="M135.101,147.532 C135.005,147.000 134.966,146.479 134.966,145.937 C134.966,145.937 134.966,80.308 134.966,80.308 C134.966,51.300 108.835,27.470 75.221,24.243 C75.221,24.243 73.555,24.243 73.555,24.243 C39.941,27.470 13.810,51.300 13.810,80.308 C13.810,80.308 13.810,145.937 13.810,145.937 C13.810,146.479 13.771,147.000 13.676,147.532 C13.159,150.393 10.901,159.861 2.571,168.584 C-3.084,174.507 1.242,184.344 9.431,184.344 C9.431,184.344 139.345,184.344 139.345,184.344 C147.534,184.344 151.860,174.507 146.205,168.584 C137.875,159.861 135.617,150.393 135.101,147.532 Z" id="path-3" class="cls-5" fill-rule="evenodd"/>
    <path d="M24.684,112.211 C22.699,112.211 21.092,110.603 21.092,108.619 C21.092,108.619 21.092,84.613 21.092,84.613 C21.092,67.854 30.935,52.314 47.421,43.042 C49.153,42.066 51.342,42.684 52.314,44.411 C53.287,46.142 52.673,48.331 50.944,49.304 C36.750,57.286 28.276,70.485 28.276,84.613 C28.276,84.613 28.276,108.619 28.276,108.619 C28.276,110.603 26.667,112.211 24.684,112.211 Z" id="path-4" class="cls-6" fill-rule="evenodd"/>
    <path d="M146.205,168.584 C137.876,159.861 135.617,150.393 135.101,147.532 C135.005,147.000 134.966,146.479 134.966,145.937 C134.966,145.937 134.966,80.308 134.966,80.308 C134.966,51.300 108.835,27.470 75.221,24.243 C75.221,24.243 73.555,24.243 73.555,24.243 C69.174,24.664 64.929,25.452 60.843,26.537 C60.843,26.537 61.899,26.537 61.899,26.537 C93.157,29.538 117.456,51.697 117.456,78.673 C117.456,78.673 117.456,139.703 117.456,139.703 C117.456,140.206 117.493,140.690 117.582,141.185 C118.061,143.845 120.162,152.651 127.908,160.762 C133.167,166.270 129.144,175.416 121.528,175.416 C121.528,175.416 0.720,175.416 0.720,175.416 C0.487,175.416 0.268,175.382 0.041,175.366 C0.286,180.011 3.998,184.344 9.431,184.344 C9.431,184.344 139.345,184.344 139.345,184.344 C147.534,184.344 151.860,174.507 146.205,168.584 Z" id="path-5" class="cls-7" fill-rule="evenodd"/>
    <path d="M86.514,12.118 C86.514,18.814 81.085,24.243 74.388,24.243 C67.691,24.243 62.262,18.814 62.262,12.118 C62.262,5.420 67.691,-0.008 74.388,-0.008 C81.085,-0.008 86.514,5.420 86.514,12.118 Z" id="path-6" class="cls-8" fill-rule="evenodd"/>
    <path d="M81.141,2.049 C82.439,3.979 83.198,6.301 83.198,8.802 C83.198,15.499 77.769,20.928 71.072,20.928 C68.571,20.928 66.249,20.169 64.319,18.870 C66.496,22.110 70.192,24.243 74.388,24.243 C81.085,24.243 86.514,18.815 86.514,12.118 C86.514,7.922 84.381,4.225 81.141,2.049 Z" id="path-7" class="cls-4" fill-rule="evenodd"/>
  </g>
</svg>
